X: 8975
T: Cutting Bracken
R: strathspey
M: 4/4
K: Aminor
[M:2/4]
|:AA ~a2|ge ~g2|ed B/c/B/A/|GA BG|
AA ~a2|ge ~g2|ed BG|1 A2 AE:|2 A2 A(3B/c/d/||
|:ed B/c/B/A/|GA Bd|ed BA|B2 Bg|
ed B/c/B/A/|GA Bd|ed gB|1 A2 A(3B/c/d/:|2 A2 AE||

